X: 13433
T: Flogging, The
R: reel
M: 4/4
K: Gmajor
|:"#"BG (3GGG BGdG|BG (3GGG Bdgd|BG (3GGG dGBG|AGFG ABcd:|
|:~g3 d BGBd|~g3e fgaf|1 ~g3d B2dB|"+" AGFG ABcd:|2 bgaf gedB|cBAG FGAd||
|:(3Bcd gd edgd|(3Bcd gd BGG2|(3ABc gc ac c2|(3ABc gc BGG2|
(3Bcd gded g2|(3Bcd ef ~g3a|bgaf gedB|cBAG FGAd|
P:Varations
"#"B~G3 G3A|B~G3 Bdgd|"+" "Continues into 1st Bar"cAFE DCB,A,|G,2 gd BGBd|

